packages/core/src/svgs/arpa.svg

<svg width="24" height="24" viewBox="0 0 24 24" fill="none" xmlns="http://www.w3.org/2000/svg">
<g clip-path="url(#clip0_31_6093)">
<path d="M0 0H24V24H0V0Z" fill="#263145"/>
<path d="M5.87997 17.1428L5.14282 15.8571H15.9257L12 8.98282L12.7243 7.70996L18.0985 17.1428H5.87997Z" fill="#5A5967"/>
<path d="M12.72 5.14307L7.32861 14.5716H8.79861L12.72 7.7145L18.0986 17.1431L18.8572 15.8445L12.72 5.14307Z" fill="url(#paint0_linear_31_6093)"/>
<path d="M5.14282 15.8574L11.2971 5.14307H12.7243L7.32425 14.5716H15.1928L15.9257 15.8574H5.14282Z" fill="url(#paint1_linear_31_6093)"/>
</g>
<defs>
<linearGradient id="paint0_linear_31_6093" x1="12.8272" y1="5.16021" x2="13.1058" y2="16.8002" gradientUnits="userSpaceOnUse">
<stop stop-color="#CBCCCD"/>
<stop offset="1" stop-color="#939493"/>
</linearGradient>
<linearGradient id="paint1_linear_31_6093" x1="12.12" y1="5.14307" x2="5.48997" y2="15.8059" gradientUnits="userSpaceOnUse">
<stop stop-color="#DCEBF5"/>
<stop offset="1" stop-color="#B9C6CC"/>
</linearGradient>
<clipPath id="clip0_31_6093">
<rect width="24" height="24" fill="white"/>
</clipPath>
</defs>
</svg>

<svg xmlns="http://www.w3.org/2000/svg" width="24" height="24" fill="none" viewBox="0 0 24 24"><g clip-path="url(#a)"><path fill="#263145" d="M0 0h24v24H0z"/><path fill="#5A5967" d="m5.88 17.143-.737-1.286h10.783L12 8.983l.724-1.273 5.375 9.433z"/><path fill="url(#b)" d="m12.72 5.143-5.391 9.429h1.47l3.921-6.857 5.379 9.428.758-1.299z"/><path fill="url(#c)" d="m5.143 15.857 6.154-10.714h1.427l-5.4 9.429h7.869l.733 1.285z"/></g><defs><linearGradient id="b" x1="12.827" x2="13.106" y1="5.16" y2="16.8" gradientUnits="userSpaceOnUse"><stop stop-color="#CBCCCD"/><stop offset="1" stop-color="#939493"/></linearGradient><linearGradient id="c" x1="12.12" x2="5.49" y1="5.143" y2="15.806" gradientUnits="userSpaceOnUse"><stop stop-color="#DCEBF5"/><stop offset="1" stop-color="#B9C6CC"/></linearGradient><clipPath id="a"><path fill="#fff" d="M0 0h24v24H0z"/></clipPath></defs></svg>
